assets/images/abla-analytics.svg

<svg xmlns="http://www.w3.org/2000/svg" style="isolation:isolate" viewBox="0 0 501.3 107.8" width="668.4" height="107.8pt"><defs><clipPath id="a"><path d="M0 0h501.3v107.8H0z"/></clipPath></defs><g clip-path="url(#a)"><g style="isolation:isolate"><path d="M101.896 87.045c5.145-9.091 7.025-21.008 5.255-34.883C103.614 24.555 89.663 5.495 69.522.878 67.883.496 65.147.233 62.124.104a44.858 44.858 0 0 0-3.75-.099c-3.634-.031-7.198.123-9.385.48-8.736 1.45-17.088 5.107-24.352 10.321C13.711 18.29 5.297 29.175 1.417 41.74.46 44.867.123 46.878.032 50.99c-.032.588-.04 1.181-.024 1.803-.002.402-.003.815-.003 1.247 0 10.331 2.027 16.911 7.74 25.89 3.317 5.227 11.795 13.775 17.263 17.403 12.041 7.933 26.109 11.5 40.484 10.209 17.952-1.565 29.861-8.227 36.404-20.497Z" fill="#84C188"/><g clip-path="url(#b)"><text transform="matrix(.24 0 0 .24 44.497 82.916)" style="font-family:'Arbutus Slab';font-weight:400;font-size:100px;font-style:normal;fill:#fff;stroke:none">abla</text></g><defs><clipPath id="b"><path transform="matrix(.24 0 0 .24 43.89 61.71)" d="M0 0h214v105.759H0z"/></clipPath></defs></g><g clip-path="url(#c)"><text transform="matrix(.24 0 0 .24 125 43.866)" style="font-family:'Arbutus Slab';font-weight:400;font-size:200px;font-style:normal;fill:#fff;stroke:none">abla</text></g><defs><clipPath id="c"><path transform="matrix(.24 0 0 .24 125 -.324)" d="M0 0h601.111v226.35H0z"/></clipPath></defs><g clip-path="url(#d)"><text transform="matrix(.24 0 0 .24 125 92.89)" style="font-family:'Arbutus Slab';font-weight:400;font-size:200px;font-style:normal;fill:#fff;stroke:none">analytics</text></g><defs><clipPath id="d"><path transform="matrix(.24 0 0 .24 125 39.762)" d="M0 0h1185.525v300.973H0z"/></clipPath></defs></g></svg>

<?xml version="1.0" encoding="UTF-8" standalone="no"?><!-- Generator: Gravit.io --><svg xmlns="http://www.w3.org/2000/svg" xmlns:xlink="http://www.w3.org/1999/xlink" style="isolation:isolate" viewBox="0 0 501.3 107.8" width="501.3pt" height="107.8pt"><defs><clipPath id="_clipPath_9NVgtb55TIMpAD0mGFTG6BIfk3ourQE1"><rect width="501.3" height="107.8"/></clipPath></defs><g clip-path="url(#_clipPath_9NVgtb55TIMpAD0mGFTG6BIfk3ourQE1)"><g style="isolation:isolate"><path d=" M 101.896 87.045 C 107.041 77.954 108.921 66.037 107.151 52.162 C 103.614 24.555 89.663 5.495 69.522 0.878 C 67.883 0.496 65.147 0.233 62.124 0.104 C 60.903 0.019 59.657 -0.013 58.374 0.005 C 54.74 -0.026 51.176 0.128 48.989 0.485 C 40.253 1.935 31.901 5.592 24.637 10.806 C 13.711 18.29 5.297 29.175 1.417 41.74 C 0.46 44.867 0.123 46.878 0.032 50.99 C 0 51.578 -0.008 52.171 0.008 52.793 C 0.006 53.195 0.005 53.608 0.005 54.04 C 0.005 64.371 2.032 70.951 7.745 79.93 C 11.062 85.157 19.54 93.705 25.008 97.333 C 37.049 105.266 51.117 108.833 65.492 107.542 C 83.444 105.977 95.353 99.315 101.896 87.045 Z " fill="rgb(132,193,136)"/><g clip-path="url(#_clipPath_MGPOaqL7OXTKfCOnqoAZ5JD4NKrsgC0q)"><text transform="matrix(0.24,0,0,0.24,44.497,82.916)" style="font-family:'Arbutus Slab';font-weight:400;font-size:100px;font-style:normal;fill:#ffffff;stroke:none;">abla</text></g><defs><clipPath id="_clipPath_MGPOaqL7OXTKfCOnqoAZ5JD4NKrsgC0q"><rect x="0" y="0" width="214" height="105.759" transform="matrix(0.24,0,0,0.24,43.89,61.71)"/></clipPath></defs></g><g clip-path="url(#_clipPath_156KjAvTUVW1vQzpCSLdUeajzA52pFDB)"><text transform="matrix(0.24,0,0,0.24,125,43.866)" style="font-family:'Arbutus Slab';font-weight:400;font-size:200px;font-style:normal;fill:#ffffff;stroke:none;">abla</text></g><defs><clipPath id="_clipPath_156KjAvTUVW1vQzpCSLdUeajzA52pFDB"><rect x="0" y="0" width="601.111" height="226.35" transform="matrix(0.24,0,0,0.24,125,-0.324)"/></clipPath></defs><g clip-path="url(#_clipPath_Oxo4a5bcjc84HTVRsBHqMdfQ0XDUfUZg)"><text transform="matrix(0.24,0,0,0.24,125,92.89)" style="font-family:'Arbutus Slab';font-weight:400;font-size:200px;font-style:normal;fill:#ffffff;stroke:none;">analytics</text></g><defs><clipPath id="_clipPath_Oxo4a5bcjc84HTVRsBHqMdfQ0XDUfUZg"><rect x="0" y="0" width="1185.525" height="300.973" transform="matrix(0.24,0,0,0.24,125,39.762)"/></clipPath></defs></g></svg>
